public/static/img/crypto/BTC.svg

<svg width="48" height="48" viewBox="0 0 48 48" fill="none" xmlns="http://www.w3.org/2000/svg">
<g clip-path="url(#clip0_1146_12086)">
<path d="M0.0450439 24.0088C0.0450439 27.1605 0.665822 30.2814 1.87194 33.1932C3.07805 36.105 4.84588 38.7507 7.07448 40.9794C9.30309 43.208 11.9488 44.9758 14.8606 46.1819C17.7725 47.388 20.8933 48.0088 24.045 48.0088C27.1968 48.0088 30.3176 47.388 33.2294 46.1819C36.1413 44.9758 38.787 43.208 41.0156 40.9794C43.2442 38.7507 45.012 36.105 46.2182 33.1932C47.4243 30.2814 48.045 27.1605 48.045 24.0088C48.045 20.8571 47.4243 17.7362 46.2182 14.8244C45.012 11.9126 43.2442 9.26683 41.0156 7.03823C38.787 4.80962 36.1413 3.04179 33.2294 1.83568C30.3176 0.629567 27.1968 0.00878906 24.045 0.00878906C20.8933 0.00878906 17.7725 0.629567 14.8606 1.83568C11.9488 3.04179 9.30309 4.80962 7.07448 7.03823C4.84588 9.26683 3.07805 11.9126 1.87194 14.8244C0.665822 17.7362 0.0450439 20.8571 0.0450439 24.0088Z" fill="#F7931A"/>
<path d="M30.5877 24.1083L30.3174 24.0359C32.6267 24.6136 35.0026 23.2417 35.6236 20.9232C35.775 20.365 35.8144 19.7825 35.7398 19.209C35.6652 18.6356 35.4779 18.0825 35.1888 17.5817C34.8996 17.0809 34.5143 16.6422 34.055 16.2908C33.5957 15.9394 33.0715 15.6823 32.5125 15.5343L30.5614 15.0114L31.7209 10.6839L28.939 9.93842L27.7795 14.2659L25.549 13.6685L26.7106 9.33346L23.9245 8.58691L22.7629 12.9219L17.6566 11.5538L16.8441 14.5866L20.3988 15.5391L16.6821 29.4098L13.1275 28.4573L12.3149 31.4902L17.4212 32.8583L16.2198 37.3419L19.006 38.0884L20.2073 33.6048L22.4378 34.2023L21.237 38.6843L24.0189 39.4297L25.2197 34.9478L27.5189 35.564C30.6869 36.413 33.945 34.5321 34.794 31.3636C35.6429 28.195 33.7557 24.9573 30.5877 24.1083ZM24.9832 16.6643L26.9922 17.2028L28.325 17.56C28.8656 17.7048 29.3075 17.989 29.655 18.3929C30.2648 19.0531 30.5254 20.0131 30.2766 20.9403C30.0283 21.8676 29.3225 22.5691 28.4644 22.8357C27.9619 23.0116 27.4374 23.0368 26.8962 22.892L25.5635 22.5348L23.5545 21.9963L24.9832 16.6643ZM26.1926 31.3164C26.1293 31.3201 26.0907 31.31 26.0328 31.2944L23.4054 30.5902L21.3963 30.0518L22.8251 24.7197L24.8341 25.2582L27.4615 25.9624C27.5194 25.9779 27.558 25.9881 27.6111 26.023C28.9862 26.4536 29.7912 27.9323 29.4131 29.3428C29.035 30.7533 27.5988 31.6312 26.1926 31.3164Z" fill="white"/>
</g>
<defs>
<clipPath id="clip0_1146_12086">
<rect width="48" height="48" fill="white"/>
</clipPath>
</defs>
</svg>

<svg width="48" height="48" fill="none" xmlns="http://www.w3.org/2000/svg"><g clip-path="url(#a)"><path d="M.045 24.009a24 24 0 1 0 48 0 24 24 0 0 0-48 0Z" fill="#F7931A"/><path d="m30.588 24.108-.27-.072c2.309.578 4.685-.794 5.306-3.113a4.386 4.386 0 0 0-3.111-5.389l-1.952-.523 1.16-4.327-2.782-.746-1.16 4.328-2.23-.598 1.162-4.335-2.787-.746-1.161 4.335-5.106-1.368-.813 3.033 3.555.952-3.717 13.87-3.554-.952-.813 3.033 5.106 1.368-1.201 4.484 2.786.746 1.201-4.483 2.23.597-1.2 4.482 2.782.746 1.2-4.482 2.3.616a5.94 5.94 0 0 0 7.275-4.2c.849-3.169-1.038-6.407-4.206-7.256Zm-5.605-7.444 2.01.539 1.332.357c.54.145.983.429 1.33.833.61.66.87 1.62.622 2.547a2.722 2.722 0 0 1-1.813 1.896 2.61 2.61 0 0 1-1.568.056l-1.332-.357-2.01-.539 1.43-5.332Zm1.21 14.652a.44.44 0 0 1-.16-.022l-2.628-.704-2.009-.538 1.43-5.332 2.008.538 2.628.704c.057.016.096.026.15.061 1.374.43 2.18 1.91 1.801 3.32-.378 1.41-1.814 2.288-3.22 1.973Z" fill="#fff"/></g><defs><clipPath id="a"><path fill="#fff" d="M0 0h48v48H0z"/></clipPath></defs></svg>
